X: 20052
M: 2/4
L: 1/16
K: G
(Bd3) d3e | d2g2 (ag)(fe) | (dB3) (B3G) | BA3 z2G2 |\
(Bd3) (d3e) | d3g (agfe) | d3Tg a3b | g6 |]\
d2 |\
g3d d3f | g2d2 d2g2 | {f}e3d e3g | {b}a6 f2 |
(gb3) (eg3) | d3g d3B | {B}A3G A3B | G6 f2 |\
g2d2d2 (ef) | g2d2d2 (gf) | {f}e3d (e2fg) | {b}Ha6 (gf) |\
(gb3) (eg3) | d2(gf) {f}ed {d}cB | {B}A3GA3B | {A}G6 :|


